svgs/sharp-light/code-pull-request-draft.svg

<svg xmlns="http://www.w3.org/2000/svg" viewBox="0 0 448 512"><!--! Font Awesome Pro 6.6.0 by @fontawesome - https://fontawesome.com License - https://fontawesome.com/license (Commercial License) Copyright 2024 Fonticons, Inc. --><path d="M32 32l0 96 96 0 0-96L32 32zM0 0L32 0l96 0 32 0 0 32 0 96 0 32-32 0-32 0 0 192 32 0 32 0 0 32 0 96 0 32-32 0-96 0L0 512l0-32 0-96 0-32 32 0 32 0 0-192-32 0L0 160l0-32L0 32 0 0zM336 32l32 0 32 0 0 32 0 32-32 0-32 0 0-32 0-32zm80 352l-96 0 0 96 96 0 0-96zM288 352l32 0 96 0 32 0 0 32 0 96 0 32-32 0-96 0-32 0 0-32 0-96 0-32zm80-160l32 0 0 32 0 32-32 0-32 0 0-32 0-32 32 0zM128 384l-96 0 0 96 96 0 0-96z"/></svg>

<svg xmlns="http://www.w3.org/2000/svg" viewBox="0 0 448 512"><!--! Font Awesome Pro 6.5.2 by @fontawesome - https://fontawesome.com License - https://fontawesome.com/license (Commercial License) Copyright 2024 Fonticons, Inc. --><path d="M32 32v96h96V32H32zM0 0H32h96 32V32v96 32H128 96V352h32 32v32 96 32H128 32 0V480 384 352H32 64V160H32 0V128 32 0zM336 32h32 32V64 96H368 336V64 32zm80 352H320v96h96V384zM288 352h32 96 32v32 96 32H416 320 288V480 384 352zm80-160h32v32 32H368 336V224 192h32zM128 384H32v96h96V384z"/></svg>
